korla/status/symbolic/radio-mixed-symbolic.svg

<svg style="clip-rule:evenodd;fill-rule:evenodd;stroke-linejoin:round;stroke-miterlimit:2" version="1.1" viewBox="0 0 16 16" xmlns="http://www.w3.org/2000/svg">
 <path d="m8 1c-3.86 0-7 3.14-7 7s3.14 7 7 7 7-3.14 7-7-3.14-7-7-7zm0 1c3.31 0 6 2.69 6 6s-2.69 6-6 6-6-2.69-6-6 2.69-6 6-6zm-3.043 5c-0.529 0-0.957 0.428-0.957 0.957v0.086c0 0.529 0.428 0.957 0.957 0.957h6.086c0.529 0 0.957-0.428 0.957-0.957v-0.086c0-0.529-0.428-0.957-0.957-0.957h-6.086z" style="fill-rule:nonzero;fill:rgb(223,223,223)"/>
</svg>

<svg xmlns="http://www.w3.org/2000/svg" width="16" height="16" version="1.1">
 <path style="fill:#dfdfdf" d="M 8,1 C 4.14,1 1,4.14 1,8 1,11.86 4.14,15 8,15 11.86,15 15,11.86 15,8 15,4.14 11.86,1 8,1 Z M 8,2 C 11.31,2 14,4.69 14,8 14,11.31 11.31,14 8,14 4.69,14 2,11.31 2,8 2,4.69 4.69,2 8,2 Z M 4,7 V 9 H 12 V 7 Z"/>
</svg>
